outputs/icons/file/ppt_attach_sharp.svg

<svg xmlns="http://www.w3.org/2000/svg" width="1200" height="1200" fill="none"><path fill="#000" fill-rule="evenodd" d="M50 1150h1100V348.99L850.99 50H50zm750-750h250v650H150V150h650zM198 950h76V822l28.5-.05c45.175-.085 66.189-2.735 81-10.225 20.795-10.52 40.39-32.275 49.115-54.535 3.276-8.365 4.16-16.48 4.927-45.275l.934-35.085-6.016-11.92c-12.762-25.28-29.52-42.83-49.972-52.33-13.977-6.495-31.824-7.995-115.988-9.745l-68.5-1.43zm290 0h76V822.595l41.5-1.17c44.96-1.265 58.655-3.635 74.5-12.89 21.81-12.735 41.07-41.055 45.85-67.405 3.135-17.305 2.665-50.305-.915-64.045-7.115-27.33-27.085-51.75-51.76-63.295-16.665-7.8-30.28-9.06-117.675-10.91l-67.5-1.425zm264-288h100v288h76V662h100v-60H752zm-433.376 2.01c21.512 2.095 28.198 4.925 34.967 14.805 4.012 5.85 4.409 8.875 4.409 33.515 0 24.795-.382 27.65-4.526 33.875-7.743 11.625-15.83 14.12-49.616 15.315L274 762.58V662l12.5.05c6.875.03 21.331.91 32.124 1.96m306.071 2.12C644.08 669.81 648 677.75 648 713.33c0 24.115-.27 25.845-5.17 32.91-7.85 11.335-16.905 14.085-50.33 15.285L564 762.55V661.415l25.335 1.41c13.935.77 29.845 2.26 35.36 3.305"/></svg>

<svg width="1200" height="1200" viewBox="0 0 1200 1200" fill="none" xmlns="http://www.w3.org/2000/svg"><path fill-rule="evenodd" d="M50 1150H1150V348.99L850.99 50H50V1150ZM800 400H1050V1050H150V150H800V400ZM198 950H274V822L302.5 821.95C347.675 821.865 368.689 819.215 383.5 811.725C404.295 801.205 423.89 779.45 432.615 757.19C435.891 748.825 436.775 740.71 437.542 711.915L438.476 676.83L432.46 664.91C419.698 639.63 402.94 622.08 382.488 612.58C368.511 606.085 350.664 604.585 266.5 602.835L198 601.405V950ZM488 950H564V822.595L605.5 821.425C650.46 820.16 664.155 817.79 680 808.535C701.81 795.8 721.07 767.48 725.85 741.13C728.985 723.825 728.515 690.825 724.935 677.085C717.82 649.755 697.85 625.335 673.175 613.79C656.51 605.99 642.895 604.73 555.5 602.88L488 601.455V950ZM752 662H852V950H928V662H1028V602H752V662ZM318.624 664.01C340.136 666.105 346.822 668.935 353.591 678.815C357.603 684.665 358 687.69 358 712.33C358 737.125 357.618 739.98 353.474 746.205C345.731 757.83 337.644 760.325 303.858 761.52L274 762.58V662L286.5 662.05C293.375 662.08 307.831 662.96 318.624 664.01ZM624.695 666.13C644.08 669.81 648 677.75 648 713.33C648 737.445 647.73 739.175 642.83 746.24C634.98 757.575 625.925 760.325 592.5 761.525L564 762.55V661.415L589.335 662.825C603.27 663.595 619.18 665.085 624.695 666.13Z" fill="#1D1E23"/></svg>
